Suru++-Ubuntu/apps/scalable/de.haeckerfelix.Radio.svg

<svg width="256" height="256" style="enable-background:new" version="1.0" xmlns="http://www.w3.org/2000/svg" xmlns:xlink="http://www.w3.org/1999/xlink">
 <defs>
  <filter id="filter925" x="-.02" y="-.03" width="1.046" height="1.05" style="color-interpolation-filters:sRGB">
   <feGaussianBlur stdDeviation="2.32"/>
  </filter>
  <filter id="filter931" x="-.01" y="-.01" width="1.023" height="1.025" style="color-interpolation-filters:sRGB">
   <feGaussianBlur stdDeviation="1.16"/>
  </filter>
  <linearGradient id="linearGradient1108" x1="296" x2="296" y1="-212" y2="236" gradientUnits="userSpaceOnUse">
   <stop style="stop-color:#ffffff" offset="0"/>
   <stop style="stop-color:#ffffff;stop-opacity:.09803922" offset=".125"/>
   <stop style="stop-color:#000000;stop-opacity:.09803922" offset=".925"/>
   <stop style="stop-color:#000000;stop-opacity:.49803922" offset="1"/>
  </linearGradient>
  <clipPath id="clipPath1082-3">
   <path d="M 361.9375,-212 C 507.2348,-212 528,-191.28677 528,-46.125 V 70.125 C 528,215.28618 507.2348,236 361.9375,236 H 214.0625 C 68.7652,236 48,215.28618 48,70.125 V -46.125 C 48,-191.28677 68.7652,-212 214.0625,-212 Z" style="fill:#8c59d9"/>
  </clipPath>
 </defs>
 <g transform="translate(0,-44)">
  <path d="m162.53675 62.431991c72.64865 0 83.03125 10.356615 83.03125 82.937499v58.125c0 72.58059-10.3826 82.9375-83.03125 82.9375h-73.9375c-72.64865 0-83.03125-10.35691-83.03125-82.9375v-58.125c0-72.580884 10.3826-82.937499 83.03125-82.937499z" style="filter:url(#filter925);opacity:.2"/>
  <path d="m162.53675 61.431991c72.64865 0 83.03125 10.356615 83.03125 82.937499v58.125c0 72.58059-10.3826 82.9375-83.03125 82.9375h-73.9375c-72.64865 0-83.03125-10.35691-83.03125-82.9375v-58.125c0-72.580884 10.3826-82.937499 83.03125-82.937499z" style="filter:url(#filter931);opacity:.1"/>
  <path d="m162.53675 60.431991c72.64865 0 83.03125 10.356615 83.03125 82.937499v58.125c0 72.58059-10.3826 82.9375-83.03125 82.9375h-73.9375c-72.64865 0-83.03125-10.35691-83.03125-82.9375v-58.125c0-72.580884 10.3826-82.937499 83.03125-82.937499z" style="fill:#e5a50a"/>
  <path transform="translate(0,44)" d="m150 240.43164h12.53711c9.08108 0 17.18918-0.16098 24.42578-0.58594 3.6183-0.21247 7.01771-0.49095 10.21289-0.84765 3.19518-0.35671 6.18503-0.7921 8.98242-1.31836 2.7974-0.52626 5.40318-1.1441 7.82813-1.86524 2.42494-0.72113 4.67022-1.54498 6.74805-2.48633 2.07782-0.94134 3.98809-2.00062 5.74414-3.1875 1.75604-1.18687 3.35681-2.50125 4.8164-3.95898 1.45959-1.45772 2.77832-3.05859 3.9668-4.8125 1.18847-1.75391 2.24676-3.66092 3.18945-5.73633s1.76995-4.31799 2.49219-6.74023c0.72224-2.42225 1.34006-5.02396 1.86719-7.81836 0.52712-2.7944 0.96297-5.78273 1.32031-8.97461 0.35734-3.19189 0.63671-6.58843 0.84961-10.20313 0.42579-7.22938 0.58789-15.32977 0.58789-24.40234v-58.124999c0-9.072611-0.1621-17.172938-0.58789-24.402344-0.2129-3.614703-0.49227-7.011234-0.84961-10.203125s-0.79319-6.178251-1.32031-8.972656c-0.52713-2.794405-1.14495-5.396115-1.86719-7.81836s-1.5495-4.664823-2.49219-6.740234-2.00098-3.984379-3.18945-5.738281c-1.18848-1.753903-2.50721-3.352827-3.9668-4.810547-1.45959-1.457721-3.06036-2.774073-4.8164-3.960938-1.75605-1.186864-3.66632-2.244212-5.74414-3.185547-2.07783-0.941334-4.32311-1.76715-6.74805-2.488281-2.42495-0.72113-5.03073-1.338982-7.82813-1.865234-2.79739-0.526253-5.78724-0.961659-8.98242-1.31836-3.19518-0.3567-6.59459-0.633229-10.21289-0.845703-7.2366-0.424948-15.3447-0.58789-24.42578-0.58789h-12.53711v224z" style="fill:#63452c"/>
  <path transform="matrix(.5 0 0 .5 -18.432 166.43199)" d="M 361.9375,-212 C 507.2348,-212 528,-191.28677 528,-46.125 V 70.125 C 528,215.28618 507.2348,236 361.9375,236 H 214.0625 C 68.7652,236 48,215.28618 48,70.125 V -46.125 C 48,-191.28677 68.7652,-212 214.0625,-212 Z" clip-path="url(#clipPath1082-3)" style="fill:none;opacity:.4;stroke-linecap:round;stroke-linejoin:round;stroke-width:8;stroke:url(#linearGradient1108)"/>
 </g>
 <g transform="translate(1.0563415,4.7034775)">
  <g transform="matrix(2.3049953,0,0,2.3049953,-25.427815,-489.40025)" style="enable-background:new">
   <rect x="92" y="246" width="16" height="18" rx="8" ry="8" style="fill:#bd7b08"/>
   <circle cx="100" cy="254" r="8" style="fill:#e5a50a"/>
   <circle cx="97" cy="249" r="1.313" style="fill:#63452c"/>
  </g>
  <rect x="186.63" y="132.95" width="13.83" height="13.83" rx="4.61" ry="4.61" style="fill:#bd7b08"/>
  <rect x="186.63" y="132.95" width="13.83" height="9.22" rx="4.61" ry="4.61" style="fill:#e5a50a"/>
  <rect x="209.68" y="132.95" width="13.83" height="13.83" rx="4.61" ry="4.61" style="fill:#bd7b08"/>
  <rect x="209.68" y="132.95" width="13.83" height="9.22" rx="4.61" ry="4.61" style="fill:#e5a50a"/>
  <rect x="186.63" y="156" width="13.83" height="13.83" rx="4.61" ry="4.61" style="fill:#bd7b08"/>
  <rect x="186.63" y="156" width="13.83" height="9.22" rx="4.61" ry="4.61" style="fill:#e5a50a"/>
  <rect x="209.68" y="156" width="13.83" height="13.83" rx="4.61" ry="4.61" style="fill:#bd7b08"/>
  <rect x="209.68" y="156" width="13.83" height="9.22" rx="4.61" ry="4.61" style="fill:#e5a50a"/>
  <path d="m75.991955 73.018616a50.709896 50.709896 0 0 0-29.046542 9.219982h58.156097a50.709896 50.709896 0 0 0-29.109555-9.219982zm-39.085876 18.439962a50.709896 50.709896 0 0 0-6.023602 9.219982h90.277473a50.709896 50.709896 0 0 0-6.10464-9.219982zm-9.652173 18.439962a50.709896 50.709896 0 0 0-1.742249 9.21999h100.93807a50.709896 50.709896 0 0 0-1.68373-9.21999zm-1.719747 18.43996a50.709896 50.709896 0 0 0 1.683722 9.21999h97.512119a50.709896 50.709896 0 0 0 1.74226-9.21999zm5.289803 18.43997a50.709896 50.709896 0 0 0 6.104608 9.21998h78.14926a50.709896 50.709896 0 0 0 6.02359-9.21998zm16.058417 18.43996a50.709896 50.709896 0 0 0 29.109576 9.21998 50.709896 50.709896 0 0 0 29.046535-9.21998z" style="fill:#63452c"/>
 </g>
</svg>

<svg xmlns="http://www.w3.org/2000/svg" xmlns:xlink="http://www.w3.org/1999/xlink" width="256" height="256" version="1.0" style="enable-background:new">
 <defs>
  <filter style="color-interpolation-filters:sRGB" id="filter925" width="1.046" height="1.05" x="-.02" y="-.03">
   <feGaussianBlur stdDeviation="2.32"/>
  </filter>
  <filter style="color-interpolation-filters:sRGB" id="filter931" width="1.023" height="1.025" x="-.01" y="-.01">
   <feGaussianBlur stdDeviation="1.16"/>
  </filter>
  <linearGradient id="linearGradient1108" x1="296" x2="296" y1="-212" y2="236" gradientUnits="userSpaceOnUse" xlink:href="#linearGradient1013"/>
  <linearGradient id="linearGradient1013">
   <stop offset="0" style="stop-color:#ffffff"/>
   <stop style="stop-color:#ffffff;stop-opacity:0.09803922" offset=".125"/>
   <stop style="stop-color:#000000;stop-opacity:0.09803922" offset=".925"/>
   <stop offset="1" style="stop-color:#000000;stop-opacity:0.49803922"/>
  </linearGradient>
  <clipPath id="clipPath1082-3" clipPathUnits="userSpaceOnUse">
   <path d="M 361.9375,-212 C 507.2348,-212 528,-191.28677 528,-46.125 V 70.125 C 528,215.28618 507.2348,236 361.9375,236 H 214.0625 C 68.7652,236 48,215.28618 48,70.125 V -46.125 C 48,-191.28677 68.7652,-212 214.0625,-212 Z" style="fill:#8c59d9"/>
  </clipPath>
 </defs>
 <g transform="translate(0,-44)">
  <g>
   <g>
    <path d="m 162.53675,62.431991 c 72.64865,0 83.03125,10.356615 83.03125,82.937499 v 58.125 c 0,72.58059 -10.3826,82.9375 -83.03125,82.9375 h -73.9375 c -72.64865,0 -83.0312501,-10.35691 -83.0312501,-82.9375 v -58.125 c 0,-72.580884 10.3826001,-82.937499 83.0312501,-82.937499 z" style="opacity:0.2;filter:url(#filter925)"/>
    <path style="opacity:0.1;filter:url(#filter931)" d="m 162.53675,61.431991 c 72.64865,0 83.03125,10.356615 83.03125,82.937499 v 58.125 c 0,72.58059 -10.3826,82.9375 -83.03125,82.9375 h -73.9375 c -72.64865,0 -83.0312501,-10.35691 -83.0312501,-82.9375 v -58.125 c 0,-72.580884 10.3826001,-82.937499 83.0312501,-82.937499 z"/>
   </g>
   <g>
    <path style="fill:#e5a50a" d="m 162.53675,60.431991 c 72.64865,0 83.03125,10.356615 83.03125,82.937499 v 58.125 c 0,72.58059 -10.3826,82.9375 -83.03125,82.9375 h -73.9375 c -72.64865,0 -83.0312501,-10.35691 -83.0312501,-82.9375 v -58.125 c 0,-72.580884 10.3826001,-82.937499 83.0312501,-82.937499 z"/>
    <path style="fill:#63452c" d="M 150 240.43164 L 162.53711 240.43164 C 171.61819 240.43164 179.72629 240.27066 186.96289 239.8457 C 190.58119 239.63323 193.9806 239.35475 197.17578 238.99805 C 200.37096 238.64134 203.36081 238.20595 206.1582 237.67969 C 208.9556 237.15343 211.56138 236.53559 213.98633 235.81445 C 216.41127 235.09332 218.65655 234.26947 220.73438 233.32812 C 222.8122 232.38678 224.72247 231.3275 226.47852 230.14062 C 228.23456 228.95375 229.83533 227.63937 231.29492 226.18164 C 232.75451 224.72392 234.07324 223.12305 235.26172 221.36914 C 236.45019 219.61523 237.50848 217.70822 238.45117 215.63281 C 239.39386 213.5574 240.22112 211.31482 240.94336 208.89258 C 241.6656 206.47033 242.28342 203.86862 242.81055 201.07422 C 243.33767 198.27982 243.77352 195.29149 244.13086 192.09961 C 244.4882 188.90772 244.76757 185.51118 244.98047 181.89648 C 245.40626 174.6671 245.56836 166.56671 245.56836 157.49414 L 245.56836 99.369141 C 245.56836 90.29653 245.40626 82.196203 244.98047 74.966797 C 244.76757 71.352094 244.4882 67.955563 244.13086 64.763672 C 243.77352 61.571781 243.33767 58.585421 242.81055 55.791016 C 242.28342 52.996611 241.6656 50.394901 240.94336 47.972656 C 240.22112 45.550411 239.39386 43.307833 238.45117 41.232422 C 237.50848 39.157011 236.45019 37.248043 235.26172 35.494141 C 234.07324 33.740238 232.75451 32.141314 231.29492 30.683594 C 229.83533 29.225873 228.23456 27.909521 226.47852 26.722656 C 224.72247 25.535792 222.8122 24.478444 220.73438 23.537109 C 218.65655 22.595775 216.41127 21.769959 213.98633 21.048828 C 211.56138 20.327698 208.9556 19.709846 206.1582 19.183594 C 203.36081 18.657341 200.37096 18.221935 197.17578 17.865234 C 193.9806 17.508534 190.58119 17.232005 186.96289 17.019531 C 179.72629 16.594583 171.61819 16.431641 162.53711 16.431641 L 150 16.431641 L 150 240.43164 z" transform="translate(0,44)"/>
   </g>
   <g>
    <path d="M 361.9375,-212 C 507.2348,-212 528,-191.28677 528,-46.125 V 70.125 C 528,215.28618 507.2348,236 361.9375,236 H 214.0625 C 68.7652,236 48,215.28618 48,70.125 V -46.125 C 48,-191.28677 68.7652,-212 214.0625,-212 Z" clip-path="url(#clipPath1082-3)" transform="matrix(0.5,0,0,0.5,-18.432,166.43199)" style="opacity:0.4;fill:none;stroke:url(#linearGradient1108);stroke-width:8;stroke-linecap:round;stroke-linejoin:round"/>
   </g>
  </g>
 </g>
 <g transform="translate(1.0563415,4.7034775)">
  <g transform="matrix(2.3049953,0,0,2.3049953,-25.427815,-489.40025)" style="enable-background:new">
   <rect width="16" height="18" x="92" y="246" rx="8" ry="8" style="fill:#bd7b08"/>
   <circle cx="100" cy="254" r="8" style="fill:#e5a50a"/>
   <circle cx="97" cy="249" r="1.313" style="fill:#63452c"/>
  </g>
  <rect style="fill:#bd7b08" width="13.83" height="13.83" x="186.63" y="132.95" rx="4.61" ry="4.61"/>
  <rect width="13.83" height="9.22" x="186.63" y="132.95" rx="4.61" ry="4.61" style="fill:#e5a50a"/>
  <rect width="13.83" height="13.83" x="209.68" y="132.95" rx="4.61" ry="4.61" style="fill:#bd7b08"/>
  <rect style="fill:#e5a50a" width="13.83" height="9.22" x="209.68" y="132.95" rx="4.61" ry="4.61"/>
  <rect width="13.83" height="13.83" x="186.63" y="156" rx="4.61" ry="4.61" style="fill:#bd7b08"/>
  <rect style="fill:#e5a50a" width="13.83" height="9.22" x="186.63" y="156" rx="4.61" ry="4.61"/>
  <rect style="fill:#bd7b08" width="13.83" height="13.83" x="209.68" y="156" rx="4.61" ry="4.61"/>
  <rect width="13.83" height="9.22" x="209.68" y="156" rx="4.61" ry="4.61" style="fill:#e5a50a"/>
  <path style="fill:#63452c" d="M 75.991955,73.018616 A 50.709896,50.709896 0 0 0 46.945413,82.238598 H 105.10151 A 50.709896,50.709896 0 0 0 75.991955,73.018616 Z M 36.906079,91.458578 a 50.709896,50.709896 0 0 0 -6.023602,9.219982 h 90.277473 a 50.709896,50.709896 0 0 0 -6.10464,-9.219982 z m -9.652173,18.439962 a 50.709896,50.709896 0 0 0 -1.742249,9.21999 H 126.44973 a 50.709896,50.709896 0 0 0 -1.68373,-9.21999 z m -1.719747,18.43996 a 50.709896,50.709896 0 0 0 1.683722,9.21999 H 124.73 a 50.709896,50.709896 0 0 0 1.74226,-9.21999 z m 5.289803,18.43997 a 50.709896,50.709896 0 0 0 6.104608,9.21998 h 78.14926 a 50.709896,50.709896 0 0 0 6.02359,-9.21998 z m 16.058417,18.43996 a 50.709896,50.709896 0 0 0 29.109576,9.21998 50.709896,50.709896 0 0 0 29.046535,-9.21998 z"/>
 </g>
</svg>
